X:18602
T:Red Lark, The
T:Little Red Lark
R:Waltz
C:Trad. (O'Neills)
O:Ireland
Z:Paul Hardy's Annex Tunebook 2015 (see www.paulhardy.net). Creative Commons cc by-nc-sa licenced.
M:3/4
L:1/4
Q:1/4=120
K:G
D|"G"G2A|"Em"GEF|"G"G2A|"Em"Bge|"G"d>BG|BAG|"Em"E3|"D"D2D|
"G"G2A|"Em".G.E.F|"G"G2A|"Em"Bge|"G"d>BG|"D"BA>G|"G"G3|-G2:|
|:d|"G"g>fg|"Em"edB|"G"g>fg|"Em"ege|"G"d>BG|BAG|"Em"E3|"D"D2D|
"G"G2A|"Em".G.E.F|"G"G2A|"Em"Bge|"G"d>BG|"D"BA>G|"G"G3|-G2:|

